svg/color/ali.svg

<?xml version="1.0" encoding="UTF-8" ?>
<!DOCTYPE svg PUBLIC "-//W3C//DTD SVG 1.1//EN" "http://www.w3.org/Graphics/SVG/1.1/DTD/svg11.dtd">
<svg width="250pt" height="250pt" viewBox="0 0 250 250" version="1.1" xmlns="http://www.w3.org/2000/svg">
<g id="#fcfcffff">
<path fill="#fcfcff" opacity="1.00" d=" M 0.00 0.00 L 113.43 0.00 C 86.66 4.27 59.92 13.92 40.24 33.23 C 17.21 53.81 4.36 83.43 0.00 113.57 L 0.00 0.00 Z" />
<path fill="#fcfcff" opacity="1.00" d=" M 136.57 0.00 L 250.00 0.00 L 250.00 112.52 C 245.46 84.92 234.81 57.44 214.29 37.71 C 194.09 15.94 165.48 4.37 136.57 0.00 Z" />
<path fill="#fcfcff" opacity="1.00" d=" M 122.37 51.34 C 127.40 50.11 133.62 52.18 136.49 56.56 C 157.91 93.86 180.69 130.67 200.30 168.87 C 204.24 182.84 182.96 192.48 175.06 180.95 C 161.91 159.31 149.61 137.11 136.64 115.35 C 131.43 107.91 118.58 107.57 113.81 115.77 C 100.45 136.73 89.29 159.00 75.95 179.98 C 70.87 189.56 53.69 187.56 50.58 177.35 C 46.50 164.66 57.82 155.85 62.43 145.37 C 76.96 119.39 92.07 93.72 107.00 68.00 C 110.08 60.92 114.51 53.66 122.37 51.34 Z" />
<path fill="#fcfcff" opacity="1.00" d=" M 125.74 136.09 C 137.89 138.33 142.62 150.93 147.16 160.88 C 150.66 168.98 143.82 176.83 136.65 179.68 C 125.69 179.93 108.70 183.85 103.66 170.33 C 100.60 165.68 103.04 160.51 105.11 156.04 C 110.15 147.81 114.08 136.23 125.74 136.09 Z" />
<path fill="#fcfcff" opacity="1.00" d=" M 0.00 136.43 C 1.75 142.82 2.29 149.49 4.13 155.87 C 15.79 206.03 61.73 244.14 112.43 250.00 L 0.00 250.00 L 0.00 136.43 Z" />
<path fill="#fcfcff" opacity="1.00" d=" M 169.01 242.03 C 213.07 226.17 244.31 183.59 250.00 137.58 L 250.00 250.00 L 137.48 250.00 C 147.97 247.28 158.95 246.26 169.01 242.03 Z" />
</g>
<g id="#364ae1ff">
<path fill="#364ae1" opacity="1.00" d=" M 113.43 0.00 L 136.57 0.00 C 165.48 4.37 194.09 15.94 214.29 37.71 C 234.81 57.44 245.46 84.92 250.00 112.52 L 250.00 137.58 C 244.31 183.59 213.07 226.17 169.01 242.03 C 158.95 246.26 147.97 247.28 137.48 250.00 L 112.43 250.00 C 61.73 244.14 15.79 206.03 4.13 155.87 C 2.29 149.49 1.75 142.82 0.00 136.43 L 0.00 113.57 C 4.36 83.43 17.21 53.81 40.24 33.23 C 59.92 13.92 86.66 4.27 113.43 0.00 M 122.37 51.34 C 114.51 53.66 110.08 60.92 107.00 68.00 C 92.07 93.72 76.96 119.39 62.43 145.37 C 57.82 155.85 46.50 164.66 50.58 177.35 C 53.69 187.56 70.87 189.56 75.95 179.98 C 89.29 159.00 100.45 136.73 113.81 115.77 C 118.58 107.57 131.43 107.91 136.64 115.35 C 149.61 137.11 161.91 159.31 175.06 180.95 C 182.96 192.48 204.24 182.84 200.30 168.87 C 180.69 130.67 157.91 93.86 136.49 56.56 C 133.62 52.18 127.40 50.11 122.37 51.34 M 125.74 136.09 C 114.08 136.23 110.15 147.81 105.11 156.04 C 103.04 160.51 100.60 165.68 103.66 170.33 C 108.70 183.85 125.69 179.93 136.65 179.68 C 143.82 176.83 150.66 168.98 147.16 160.88 C 142.62 150.93 137.89 138.33 125.74 136.09 Z" />
</g>
</svg>

<?xml version="1.0" encoding="utf-8"?>
<!-- Generator: Adobe Illustrator 26.0.3, SVG Export Plug-In . SVG Version: 6.00 Build 0)  -->
<svg version="1.1" id="Layer_1" xmlns="http://www.w3.org/2000/svg" xmlns:xlink="http://www.w3.org/1999/xlink" x="0px" y="0px"
	 viewBox="0 0 250 250" style="enable-background:new 0 0 250 250;" xml:space="preserve">
<style type="text/css">
	.st0{fill:#FCFCFF;}
	.st1{fill:#364AE1;}
</style>
<g id="_x23_fcfcffff">
	<path class="st0" d="M122.4,51.3c5-1.2,11.2,0.8,14.1,5.2c21.4,37.3,44.2,74.1,63.8,112.3c3.9,14-17.3,23.6-25.2,12.1
		c-13.1-21.6-25.4-43.8-38.4-65.6c-5.2-7.4-18.1-7.8-22.8,0.4c-13.4,21-24.5,43.2-37.9,64.2c-5.1,9.6-22.3,7.6-25.4-2.6
		c-4.1-12.7,7.2-21.5,11.8-32C77,119.4,92.1,93.7,107,68C110.1,60.9,114.5,53.7,122.4,51.3z"/>
	<path class="st0" d="M125.7,136.1c12.2,2.2,16.9,14.8,21.4,24.8c3.5,8.1-3.3,15.9-10.5,18.8c-11,0.2-27.9,4.2-33-9.3
		c-3.1-4.7-0.6-9.8,1.4-14.3C110.2,147.8,114.1,136.2,125.7,136.1z"/>
</g>
<g id="_x23_364ae1ff">
	<path class="st1" d="M113.4,0h23.1c28.9,4.4,57.5,15.9,77.7,37.7c20.5,19.7,31.2,47.2,35.7,74.8v25.1c-5.7,46-36.9,88.6-81,104.4
		c-10.1,4.2-21,5.2-31.5,8h-25c-50.7-5.9-96.6-44-108.3-94.1c-1.8-6.4-2.4-13-4.1-19.4v-22.9c4.4-30.1,17.2-59.8,40.2-80.3
		C59.9,13.9,86.7,4.3,113.4,0 M122.4,51.3c-7.9,2.3-12.3,9.6-15.4,16.7c-14.9,25.7-30,51.4-44.6,77.4c-4.6,10.5-15.9,19.3-11.8,32
		c3.1,10.2,20.3,12.2,25.4,2.6c13.3-21,24.5-43.2,37.9-64.2c4.8-8.2,17.6-7.9,22.8-0.4c13,21.8,25.3,44,38.4,65.6
		c7.9,11.5,29.2,1.9,25.2-12.1c-19.6-38.2-42.4-75-63.8-112.3C133.6,52.2,127.4,50.1,122.4,51.3 M125.7,136.1
		c-11.7,0.1-15.6,11.7-20.6,19.9c-2.1,4.5-4.5,9.6-1.4,14.3c5,13.5,22,9.6,33,9.3c7.2-2.8,14-10.7,10.5-18.8
		C142.6,150.9,137.9,138.3,125.7,136.1z"/>
</g>
</svg>
